X:3933
T:Maids of Mount Kisco
O:england
M:C|
R:Reel
S:Luisa
K:Amin
EA (3AAA BGAG|EA (3AAA BGAG|EG (3GGG BGAG|EG (3GGG EGDG|\
EA (3AAA BGAG|EA (3AAA BABd|eg (3ggg agge|1 dBGB A2AG:|2 dBGB A2dB|:\
A2AB dBAB|G2BG DGBG|AGAB dABd|1 egge dBGB:|2 egge dGBd|:\
ea (3aaa baag|gedB GABd|ea (3aaa baag|gede gdeg|\
a2a^f g2ge|dedB GABd|eA (3AAA egge|dBGB A4||
